X:1
T:St. John's Highlands, LM
T:St. John's Highlands, LM
T:Public Domain, Courtesy of the Cyber Hymnal
Z:Public Domain, Courtesy of the Cyber Hymnal
%%score ( 1 2 ) 3
L:1/8
Q:1/4=160
M:none
K:Db
V:1 treble nm="Staff 1"
V:2 treble 
V:3 bass nm="St. John’s Highlands, LM"
V:1
 ([DF]4 [EG]2 [=E=G]2 | [FA]4 [Ad]4 | [Gd]4 [Gc]4 | [EG]8 | [DF]4 F2 F2 | [DF]4 [DB]4 | [DB]4 E4 | %7
 [CE]8) | ([DF]4 [EG]2 [=E=G]2 | [FA]4 [Dd]4 | [Gd]4 [Gc]4 | [EG]8 | [DF]4 [DF]2 [DF]2 | %13
 [FA]4 [EG]4 | [DF]4 E2 [CA]2 | D8) |] %16
V:2
 x8 | x8 | x8 | x8 | x4 E2 E2 | x8 | x4 D4 | x8 | x8 | x8 | x8 | x8 | x8 | x8 | x8 | D8 |] %16
V:3
 ([D,A,]4 [D,A,]2 [D,A,]2 | [D,A,]4 [F,A,]4 | [E,A,]4 [E,A,]4 | [C,A,]8 | %4
 [D,A,]4 [C,=A,]2 [C,A,]2 | [B,,B,]4 [B,,B,]4 | [G,,E,]4 [=G,,B,]4 | [A,,A,]8) | %8
 ([D,A,]4 [D,A,]2 [D,A,]2 | [D,A,]4 [F,A,]4 | [E,A,]4 [E,A,]4 | [C,A,]8 | [D,A,]4 [D,_C]2 [D,C]2 | %13
 [G,,B,]4 [G,,B,]4 | [A,,A,]4 [A,,G,]4 | [D,F,]8) |] %16

